X:1
T:Kyrie
T:Kyrie
T:Oliver Hayes
C:Oliver Hayes
%%score 1 { ( 2 3 ) | ( 4 5 ) }
L:1/8
Q:1/2=75
M:3/2
K:G
V:1 treble nm="MusicXML Part"
V:2 treble nm="Organ"
V:3 treble 
V:4 bass 
V:5 bass 
V:1
"^Andante Sostinuto"!mf! (c4 G4) A4 | c8 c4 | (B2 A2 G4) A4 | A8 z4 | (G4 A4) B4 | c8 A4 | %6
w: Ky- * ri-|e e-|le- * * i-|son,|Ky- * ri-|e e-|
 (A2 B2 A4) G4 | E8 z4 | (E4 G4) E4 | A8 B4 | (G4 F4) A4 | B8 A4 | (c4 G4) A4 | A8 z4 || %14
w: le- * * i-|son,|Ky- * ri-|e e-|le- * i-|son, e-|le- * i-|son.|
 (A4 F4 G4) | A8 A4 | (B2 A2 G2 F2) E4 | G8 z4 | (D4 E4 F4) | E8 D4 | (E2 F2 G4) E4 | G8 z4 | %22
w: Chri- * *|ste e-|le- * * * i-|son,|Chri- * *|ste e-|le- * * i-|son,|
 (E4 F4 G4) | A8 B4 | (c4 A4) F4 | G8 B4 | (A4 E4) G4 |"^Tutti:" A8 z4 || %28
w: Chri- * *|ste e-|le- * i-|son, e-|le- * i-|son.|
[M:3/4]!f![Q:1/4=120]"^Piu Mosso" (E2 G2) A2 | c4 A2 | (B2 A2) G2 | E4 z2 | (G2 A2) B2 | c4 A2 | %34
w: Ky- * ri-|e e-|le- * i-|son,|Ky- * ri-|e e-|
 (A2 c2) B2 | A4 z2 | (A6 | B4) G2 | A4 B2 | (c2 B2) A2 | B4 d2 | (c2 B2 A2 | G2 F2) E2 | D4 z2 | %44
w: le- * i-|son,|Ky-|* ri-|e e-|le- * i-|son, e-|le- * *|* * i-|son,|
 z6 | z4 A2 | (B2 A2 G2 | F6) | !fermata!E6 |] %49
w: |e-|lei- * *||son.|
V:2
!mf! c4 G4 A4 | c8 c4 | B2 A2 G4 A4 | A12 | G4 A4 B4 | c8 [EA]4 | A2 B2 A4 G4 | E6 F2 G2 F2 | %8
 E4 G4 E4 | A8 B4 | G4 F4 A4 | B8 A4 | [Gc]4 G4 A4 | A12 ||"^Solo:"!p! D12 | F8 A4 | G8 E4 | G12 | %18
 [DF]12 | E8 D4 | C12 | [B,D]12 | E12 | F12 | E8 F4 | G12 | E12 | F12 ||[M:3/4]!f! E2 G2 A2 | %29
 c4 A2 | B2 A2 G2 | E4 F2 | B2 A2 G2 | A2 G2 F2 | A4 G2 | A6 | E2 G2 A2 | G2 B2 G2 | A4 B2 | %39
 c2 B2 A2 | B4 d2 | c2 B2 A2 | G2 F2 G2 | A2 G2 F2 | G2 F2 E2 | D4 A2 | B2 A2 G2 | F6 | %48
 !fermata!E6 |] %49
V:3
 E8 F4 | E8 E4 | E8 F4 | C12 | E8 D4 | E6 D2 C2 B,2 | F8 E4 | C8 D4 | C8 B,4 | D4 F4 G4 | %10
 E4 D4 D4 | D8 [DF]4 | E2 D2 [CE]4 [DF]4 | E12 || x12 | D12 | D8 C4 | [B,D]12 | B,12 | B,12 | %20
 G,12 | G,12 | B,8 C4 | D12 | C8 D4 | B,12 | C12 | D12 ||[M:3/4] C2 B,2 F2 | E4 D2 | D4 E2 | %31
 C4 D2 | D4 D2 | E4 D2 | C4 B,2 | C4 D2 | C2 E2 F2 | B,2 E2 B,2 | D4 D2 | E2 D2 C2 | D2 F2 A2 | %41
 G2 E2 C2 | D4 E2 | F2 E2 F2 | D4 B,2 | A,4 D2 | D4 E2 | D6 | B,6 |] %49
V:4
 G,4 C4 A,2 B,2 | C6 B,2 A,4 | G,4 B,2 G,2 A,2 G,2 | E,8 A,4 | B,12 | C8 z4 | A,4 D2 C2 B,4 | %7
 A,8 A,4 | A,2 G,2 E,2 F,2 G,4 | F,2 G,2 A,4 G,4 | C2 B,2 A,2 G,2 A,4 | B,6 C2 z4 | x12 | C12 || %14
"^senza ped." [F,A,]8 [G,B,]4 | A,8 F,4 | B,8 G,4 | G,12 | F,12 | G,12 | E,12 | D,12 | G,12 | %23
 A,8 B,4 | A,8 F,4 | G,12 | A,12 | A,12 ||[M:3/4]"^Ped." A,2 G,2 A,2 | A,2 G,2 F,2 | B,2 A,2 B,2 | %31
 A,2 G,2 F,2 | G,2 A,2 B,2 | A,4 A,2 | A,4 G,2 | A,2 G,2 F,2 | A,6 | G,6 | F,6 | A,6 | %40
 F,2 D,2 F,2 | E,6 | B,6 | D6 | B,4 G,2 | F,4 A,2 | B,2 A,2 B,2 | B,4 A,2 | !fermata!G,6 |] %49
V:5
 C,8 D,4 | A,8 A,,4 | E,8 D,4 | A,,8 C,4 | E,6 F,2 G,4 | A,8 A,,4 | D,8 E,4 | A,8 D,4 | %8
 A,,4 C,4 E,4 | D,8 E,4 | C,4 D,4 F,4 | G,8 D,4 | C,4 E,4 D,4 | A,12 || D,12 | D,12 | G,8 E,4 | %17
 G,,12 | B,,12 | E,8 D,4 | C,12 | G,,12 | E,12 | D,12 | A,,8 B,,4 | E,12 | A,,12 | D,12 || %28
[M:3/4] A,,2 E,2 D,2 | A,,4 D,2 | G,2 F,2 E,2 | A,,4 B,,2 | G,,4 B,,2 | C,4 D,2 | =F,4 E,2 | %35
 A,,4 D,2 | A,,2 C,2 D,2 | E,6 | D,2 C,2 B,,2 | A,,4 C,2 | D,4 D,2 | C,4 E,2 | G,4 E,2 | D,4 B,,2 | %44
 G,,2 B,,2 D,2 | D,4 F,2 | G,2 F,2 E,2 | B,,6 | E,6 |] %49

